X:1
T: Moragh of Dunvegan
I:
C: W-9
M: 3/4
L: 1/4
Z:
R: waltz
K: D
"A7"B2 c2| "D"d6| "G"d3 c B2| "D"A4 D2| D6|\
    F6| "Bm"F2 E2 F2| "Em"B4 A2| "A7"A3 B c2|
"D"d6| "G"d3 c B2| "D"A4 D2| D6|\
   "Bm"F4 F2| "F#m"A4 F2| "A7"E6| "D"D6|]
\
"D"F6| F2 E2 D2| F2 A4| A3 B c2|\
"G"d6| "D"d2 c2 d2| "Em"B4 A2| "A7"A6|
"D"F6| "D7"F2 E2 F2| "G"B4 A2| "D"A6|\
"G"B6| "D"B2 A2 F2| "A7"E4 D2| "D"D2|]
%
